third_party/noto/noto_2/emoji_u1f5d1.svg

<svg enable-background="new 0 0 128 128" version="1.1" viewBox="0 0 128 128" xmlns="http://www.w3.org/2000/svg"><ellipse cx="63.94" cy="104.89" rx="35" ry="13.61" fill="#B9E4EA"/><path d="m29.98 110.19c0-7.13 15.2-12.04 33.96-12.04s33.96 4.91 33.96 12.04-15.2 13.53-33.96 13.53-33.96-6.4-33.96-13.53z" fill="#94D1E0"/><linearGradient id="b" x1="64.111" x2="64.111" y1="89.966" y2="147.63" gradientUnits="userSpaceOnUse"><stop stop-color="#82AFC1" offset="0"/><stop stop-color="#2F7889" offset="1"/></linearGradient><path d="m108.51 32.83-2.26 12.33-6.61-6.61 3.44-3.44-9.75 2.84 0.6 0.6-8.09 8.09-6.54-6.54-9.63 0.82-5.72 5.72-6.2-6.2-8.96-0.52-6.72 6.72-8.09-8.09 0.83-0.83-9.36-1.98 2.81 2.81-6.39 6.39-2.24-12.34-4.56-2.58 14.51 80.37c1.12 7.63 15.71 13.61 34.47 13.61s33.08-5.98 34.51-13.61l14.6-80.45-4.65 2.89zm-24.45 77.7-6.32-6.32 8.09-8.09 8.09 8.09-4.72 4.72c-1.62 0.58-3.34 1.11-5.14 1.6zm-44.85-1.07-5.25-5.25 8.09-8.09 8.09 8.09-6.51 6.51c-1.54-0.38-3.02-0.81-4.42-1.26zm32.82-5.24-8.09 8.09-8.09-8.09 8.09-8.09 8.09 8.09zm-5.23-10.95 8.09-8.09 8.09 8.09-8.09 8.09-8.09-8.09zm-13.81 8.09-8.09-8.09 8.09-8.09 8.09 8.09-8.09 8.09zm0 5.71 6.13 6.13c-3.65-0.25-7.33-0.75-10.84-1.43l4.71-4.7zm15.77 6.13 6.13-6.13 4.58 4.58c-3.48 0.74-7.11 1.29-10.71 1.55zm27.31-12.55-7.38-7.38 8.09-8.09 1.8 1.8-2.51 13.67zm4.6-25.08-3.89 3.89-8.09-8.09 8.09-8.09 5.19 5.19-1.3 7.1zm-6.75 6.75-8.09 8.09-8.09-8.09 8.09-8.09 8.09 8.09zm-19.04-2.85-8.09-8.09 8.09-8.09 8.09 8.09-8.09 8.09zm-2.85 2.85-8.09 8.09-8.09-8.09 8.09-8.09 8.09 8.09zm-19.04-2.85-8.09-8.09 8.09-8.09 8.09 8.09-8.09 8.09zm-2.86 2.85-8.09 8.09-8.09-8.09 8.09-8.09 8.09 8.09zm-19.03-2.85-3.72-3.72-1.33-7.4 5.05-5.05 8.09 8.09-8.09 8.08zm0 5.71 8.09 8.09-7.35 7.35-2.46-13.72 1.72-1.72zm71.75-21.53-3.22-3.22 4.67-4.67-1.45 7.89zm-6.07-22.25 8.09 8.09-8.09 8.09-8.09-8.09 8.09-8.09zm-10.95 10.94 8.09 8.09-8.09 8.09-8.09-8.09 8.09-8.09zm-10.95-10.94 8.09 8.09-8.09 8.09-8.09-8.09 8.09-8.09zm-2.85 19.03-8.09 8.09-8.09-8.09 8.09-8.09 8.09 8.09zm-19.04-19.03 8.09 8.09-8.09 8.09-8.09-8.09 8.09-8.09zm-2.86 19.03-8.09 8.09-8.09-8.09 8.09-8.09 8.09 8.09zm-19.03-19.03 8.09 8.09-8.09 8.09-8.09-8.09 8.09-8.09zm-2.86 19.03-3.06 3.06-1.34-7.47 4.4 4.41z" fill="url(#b)"/><radialGradient id="a" cx="65.53" cy="12.998" r="52.279" gradientTransform="matrix(1 0 0 .4505 0 7.1421)" gradientUnits="userSpaceOnUse"><stop stop-color="#94D1E0" offset=".7216"/><stop stop-color="#94D1E0" stop-opacity="0" offset="1"/></radialGradient><path d="m107.47 24.48-8.06-8.06 2.29-2.29c-1.08-0.97-3.87-1.84-3.87-1.84l-1.27 1.27-2.07-2.07c-4.25-1.51-7.07-1.35-7.07-1.35l6.28 6.28-8.09 8.09-8.09-8.09 6.66-6.66c-2.61-0.8-5.06-0.66-5.06-0.66l-4.46 4.46-5.16-5.15-5.57 0.15 7.86 7.86-8.09 8.09-8.09-8.09 7.88-7.88-5.94 0.22-4.8 4.8-4.72-4.72-5.03 0.67 6.91 6.91-8.09 8.09-8.09-8.09 6.31-6.31s-5.64 0.76-7.28 1.56l-1.89 1.89-1.18-1.18s-2.25 0.34-4.09 1.63l2.41 2.41-7.24 7.24s0.42 1.65 2.81 2.9l7.29-7.29 8.09 8.09-4.22 4.22s2.74 1.55 4.75 0.97l2.33-2.33 5.87 5.87 9.87 0.29 6.15-6.15 5.98 5.98 10.29-0.36 5.62-5.62 2.5 2.5c2.67 0.26 4.81-0.9 4.81-0.9l-4.45-4.45 8.09-8.09 8.09 8.09c0-0.01 2.48-1.52 2.83-2.9zm-54.7 10.98-8.09-8.09 8.09-8.09 8.09 8.09-8.09 8.09zm21.89 0-8.09-8.09 8.09-8.09 8.09 8.09-8.09 8.09z" fill="url(#a)"/><path d="m64 4c-29.83 0-54.01 5.9-54.01 18.74 0 10.24 24.18 18.74 54.01 18.74s54.01-8.5 54.01-18.74c0-11.45-24.18-18.74-54.01-18.74zm0 30.36c-24.01 0-43.47-5.98-43.47-13.35s19.46-11.69 43.47-11.69 43.47 4.32 43.47 11.69-19.46 13.35-43.47 13.35z" fill="#84B0C1"/><path d="m107.47 15.75c2.07 1.65 3.91 4.42 1.7 6.98-1.95 2.26-1.41 2.81-0.24 2.51 2.2-0.56 5.84-3.03 4.61-7.19-1.25-4.2-8.44-7-13.26-7.99-1.31-0.27-3.5-0.56-3.89 0-0.38 0.57 6.38 1.94 11.08 5.69z" fill="#A8E3F0"/><path d="m37.24 35.27c-4.64-0.47-16.02-1.62-22.14-9.69-2.24-2.96-2.06-7.28 0.44-9.75 4.34-4.27 10.01-4.41 8.72-3.62-3.45 2.11-10.3 5.44-4.58 12.31 5.85 7.03 20.26 8.86 22.61 9.22s2.47 2.28-5.05 1.53z" fill="#A8E3F0"/></svg>

<?xml version="1.0" encoding="utf-8"?>
<!-- Generator: Adobe Illustrator 25.2.3, SVG Export Plug-In . SVG Version: 6.00 Build 0)  -->
<svg version="1.1" id="Layer_4" xmlns="http://www.w3.org/2000/svg" xmlns:xlink="http://www.w3.org/1999/xlink" x="0px" y="0px"
	 viewBox="0 0 128 128" style="enable-background:new 0 0 128 128;" xml:space="preserve">
<g>
	<ellipse style="fill:#B9E4EA;" cx="63.94" cy="104.89" rx="35" ry="13.61"/>
	<path style="fill:#94D1E0;" d="M29.98,110.19c0-7.13,15.2-12.04,33.96-12.04s33.96,4.91,33.96,12.04s-15.2,13.53-33.96,13.53
		S29.98,117.32,29.98,110.19z"/>
	<linearGradient id="SVGID_1_" gradientUnits="userSpaceOnUse" x1="64.1107" y1="89.9664" x2="64.1107" y2="147.6283">
		<stop  offset="0" style="stop-color:#82AFC1"/>
		<stop  offset="1" style="stop-color:#2F7889"/>
	</linearGradient>
	<path style="fill:url(#SVGID_1_);" d="M108.51,32.83l-2.26,12.33l-6.61-6.61l3.44-3.44l-9.75,2.84l0.6,0.6l-8.09,8.09l-6.54-6.54
		l-9.63,0.82l-5.72,5.72l-6.2-6.2l-8.96-0.52l-6.72,6.72l-8.09-8.09l0.83-0.83l-9.36-1.98l2.81,2.81l-6.39,6.39L19.63,32.6
		l-4.56-2.58l14.51,80.37C30.7,118.02,45.29,124,64.05,124s33.08-5.98,34.51-13.61l14.6-80.45L108.51,32.83z M84.06,110.53
		l-6.32-6.32l8.09-8.09l8.09,8.09l0,0l-4.72,4.72C87.58,109.51,85.86,110.04,84.06,110.53z M39.21,109.46l-5.25-5.25l0,0l8.09-8.09
		l8.09,8.09l-6.51,6.51C42.09,110.34,40.61,109.91,39.21,109.46z M72.03,104.22l-8.09,8.09l-8.09-8.09l8.09-8.09L72.03,104.22z
		 M66.8,93.27l8.09-8.09l8.09,8.09l-8.09,8.09L66.8,93.27z M52.99,101.36l-8.09-8.09l8.09-8.09l8.09,8.09L52.99,101.36z
		 M52.99,107.07l6.13,6.13c-3.65-0.25-7.33-0.75-10.84-1.43L52.99,107.07z M68.76,113.2l6.13-6.13l4.58,4.58
		C75.99,112.39,72.36,112.94,68.76,113.2z M96.07,100.65l-7.38-7.38l8.09-8.09l1.8,1.8L96.07,100.65z M100.67,75.57l-3.89,3.89
		l-8.09-8.09l8.09-8.09l5.19,5.19L100.67,75.57z M93.92,82.32l-8.09,8.09l-8.09-8.09l8.09-8.09L93.92,82.32z M74.88,79.47
		l-8.09-8.09l8.09-8.09l8.09,8.09L74.88,79.47z M72.03,82.32l-8.09,8.09l-8.09-8.09l8.09-8.09L72.03,82.32z M52.99,79.47l-8.09-8.09
		l8.09-8.09l8.09,8.09L52.99,79.47z M50.13,82.32l-8.09,8.09l-8.09-8.09l8.09-8.09L50.13,82.32z M31.1,79.47l-3.72-3.72l-1.33-7.4
		l5.05-5.05l8.09,8.09L31.1,79.47z M31.1,85.18l8.09,8.09l-7.35,7.35L29.38,86.9L31.1,85.18z M102.85,63.65l-3.22-3.22l4.67-4.67
		L102.85,63.65z M96.78,41.4l8.09,8.09l-8.09,8.09l-8.09-8.09L96.78,41.4z M85.83,52.34l8.09,8.09l-8.09,8.09l-8.09-8.09
		L85.83,52.34z M74.88,41.4l8.09,8.09l-8.09,8.09l-8.09-8.09L74.88,41.4z M72.03,60.43l-8.09,8.09l-8.09-8.09l8.09-8.09L72.03,60.43
		z M52.99,41.4l8.09,8.09l-8.09,8.09l-8.09-8.09L52.99,41.4z M50.13,60.43l-8.09,8.09l-8.09-8.09l8.09-8.09L50.13,60.43z M31.1,41.4
		l8.09,8.09l-8.09,8.09l-8.09-8.09L31.1,41.4z M28.24,60.43l-3.06,3.06l-1.34-7.47L28.24,60.43z"/>
	
		<radialGradient id="SVGID_2_" cx="65.5303" cy="12.9983" r="52.279" gradientTransform="matrix(1 0 0 0.4505 0 7.1421)" gradientUnits="userSpaceOnUse">
		<stop  offset="0.7216" style="stop-color:#94D1E0"/>
		<stop  offset="1" style="stop-color:#94D1E0;stop-opacity:0"/>
	</radialGradient>
	<path style="fill:url(#SVGID_2_);" d="M107.47,24.48l-8.06-8.06l2.29-2.29c-1.08-0.97-3.87-1.84-3.87-1.84l-1.27,1.27l-2.07-2.07
		c-4.25-1.51-7.07-1.35-7.07-1.35l6.28,6.28l-8.09,8.09l-8.09-8.09l6.66-6.66c-2.61-0.8-5.06-0.66-5.06-0.66l-4.46,4.46L69.5,8.41
		l-5.57,0.15l7.86,7.86l-8.09,8.09l-8.09-8.09l7.88-7.88l-5.94,0.22l-4.8,4.8l-4.72-4.72L43,9.51l6.91,6.91l-8.09,8.09l-8.09-8.09
		l6.31-6.31c0,0-5.64,0.76-7.28,1.56l-1.89,1.89l-1.18-1.18c0,0-2.25,0.34-4.09,1.63l2.41,2.41l-7.24,7.24c0,0,0.42,1.65,2.81,2.9
		l7.29-7.29l8.09,8.09l-4.22,4.22c0,0,2.74,1.55,4.75,0.97l2.33-2.33l5.87,5.87l9.87,0.29l6.15-6.15l5.98,5.98l10.29-0.36l5.62-5.62
		l2.5,2.5c2.67,0.26,4.81-0.9,4.81-0.9l-4.45-4.45l8.09-8.09l8.09,8.09C104.64,27.37,107.12,25.86,107.47,24.48z M52.77,35.46
		l-8.09-8.09l8.09-8.09l8.09,8.09L52.77,35.46z M74.66,35.46l-8.09-8.09l8.09-8.09l8.09,8.09L74.66,35.46z"/>
	<path style="fill:#84B0C1;" d="M64,4C34.17,4,9.99,9.9,9.99,22.74c0,10.24,24.18,18.74,54.01,18.74c29.83,0,54.01-8.5,54.01-18.74
		C118.01,11.29,93.83,4,64,4z M64,34.36c-24.01,0-43.47-5.98-43.47-13.35c0-7.37,19.46-11.69,43.47-11.69
		c24.01,0,43.47,4.32,43.47,11.69C107.47,28.38,88.01,34.36,64,34.36z"/>
	<path style="fill:#A8E3F0;" d="M107.47,15.75c2.07,1.65,3.91,4.42,1.7,6.98c-1.95,2.26-1.41,2.81-0.24,2.51
		c2.2-0.56,5.84-3.03,4.61-7.19c-1.25-4.2-8.44-7-13.26-7.99c-1.31-0.27-3.5-0.56-3.89,0C96.01,10.63,102.77,12,107.47,15.75z"/>
	<g>
		<path style="fill:#A8E3F0;" d="M37.24,35.27c-4.64-0.47-16.02-1.62-22.14-9.69c-2.24-2.96-2.06-7.28,0.44-9.75
			c4.34-4.27,10.01-4.41,8.72-3.62c-3.45,2.11-10.3,5.44-4.58,12.31c5.85,7.03,20.26,8.86,22.61,9.22S44.76,36.02,37.24,35.27z"/>
	</g>
</g>
</svg>
